X:1
T:Sonata ll 1.
T:Sonata ll 2.
T:from Three Solos containing twelve easy movements for the German Flute or Violin (London s.d.) 
T:Francesco Geminiani (1687 - 1762)
C:Francesco Geminiani (1687 - 1762)
%%score 1 2
L:1/8
Q:1/4=92
M:4/4
K:D
V:1 treble nm="Traverso" snm="Trv."
V:2 bass nm="Viola da gamba" snm="Vla. d. g."
V:1
"^Andante" A | d d2 a/f/ d/c/ d2 f | edcg gf z f | e2 af e2 z f | e2 af e3 f | g2 f2 b2 a2 | %6
 c2 d2 eA- A/c/B/d/ | c/e/d/f/ e/c/d/B/ c/e/A- A/c/B/d/ | c/A/d/B/ e/c/f/d/ e/c/f/d/ e/c/d/B/ | %9
 c/A/d/B/ e/c/f/d/ ^g/e/a/e/ d/c/B/A/ | ^G/F/E z c B2 ec | B2 z c B2 dc | B3 c d2 c2 | %13
 f2 e2- ec d2- | dc/B/ cE F/E/F/A/ ^G/F/G/B/ | A/^G/A/c/ B/A/B/d/ c/B/c/e/ d/c/d/f/ | %16
 ef/^g/ aA c2 B2 | e2 f2 ^g2 aB |1 A2 d2 A2 z :|2 A2 B2 A2 z2 |: e3 f ga b2- | ba/g/ fe ^de z2 | %22
 z a- a/f/g/e/ f/e/a- a/f/g/e/ | fd f2- fgfg | fgfg fe/d/ cB | B^A z/ f/c/f/ d/f/B/f/ c/f/e/f/ | %26
 d/f/B/f/ c/f/e/f/ d/f/B/^d/ e/B/f/B/ | g/f/e z/ e/B/e/ c/e/A/e/ B/e/d/e/ | %28
 c/e/A/e/ B/e/d/e/ c/e/A/c/ d/A/e/A/ | f/e/d z2 f3 ^g | ab c'2- c'b/a/ ^gf | ^e2 c'=e ^d2 b=d | %32
 c2 a=c B2 ^gB | Ac f2- fba^g | ^g4 f3 A | d d2 a/f/ d/c/ d2 f | edAg gf z a | %37
 b/d/e/f/ g/a/b/g/ a/c/d/e/ f/g/a/f/ | g/B/c/d/ e/f/g/e/ f/A/B/c/ d/e/f/d/ | eA z f e2 af | %40
 e2 z f e2 af | e2 z A B/A/B/d/ c/B/c/e/ | d/c/d/f/ e/d/e/g/ f/e/f/a/ g/f/g/b/ | ab/c'/ d'd f2 e2 | %44
 a2 b2 c'2 d'd | d2 e2 d2 z2 :| %46
V:2
 z | !0!D2 !4!C2 !2!B,2 !2!F,2 | !3!G,2 !0!A,2 !2!D,!0!E,!2!F,!2!D, | %3
 !0!A,!2!B,!4!C!0!D !0!A,!2!B,!4!C!0!D | !0!A,!2!B,!4!C!0!D !0!A,!2!B,!4!C!0!D | %5
 !2!B,2 !0!A,2 !3!G,2 !2!F,2 | !0!E,2 !2!D,2 !2!A,,2 z2 | z4 !2!A,,2 z2 | z4 !2!A,,2 z2 | z8 | %10
 !0!E,!2!F,!4!^G,!0!A, !0!E,!2!F,!4!G,!0!A, | !0!E,!2!F,!4!^G,!0!A, !0!E,!2!F,!4!G,!0!A, | %12
 !0!E,!2!F,!4!^G,!0!A, !2!F,2 !0!E,2 | !2!D,2 !1!C,2 !2!F,2 !4!B,,2 | %14
 !0!E,2 !2!A,,2 !2!D,2 !4!B,,2 | !1!C,2 !1!^G,,2 !2!A,,2 !4!B,,2 | %16
 !1!C,3 !2!D, !0!E,!2!E,,!0!E,!2!D, | !1!C,2 !2!D,4 !1!C,!2!D, |1 !0!E,2 !2!E,,2 !2!A,,2 z :|2 %19
 !0!E,2 !2!E,,2 !2!A,,2 z2 |: !0!A,!2!B,!3!=C!0!A, !0!E,3 !2!F, | %21
 !3!G,2 !0!A,2 !2!B,!0!E,!2!F,!3!G, | !1!C,2 !2!A,,2 !2!D,2 !1!C,2 | !2!D,3 !2!B, !1!^A,3 !2!B, | %24
 !1!^A,3 !2!B, !1!A,!2!B, !0!E,2 | !2!F,!4!^G,!1!^A,!2!F, !2!B,2 !1!A,2 | %26
 !2!B,2 !1!^A,2 !2!B,!0!=A,!3!G,!2!F, | !0!E,!2!F, !4!^G,2 !0!A,2 !4!G,2 | %28
 !0!A,2 !4!^G,2 !0!A,!3!=G,!2!F,!0!E, | %29
 !2!D,!0!E,/!2!F,/ !3!G,/!0!A,/!2!B,/!4!C/ !0!D!4!C!0!D!2!B, | !2!F,3 !4!^G, !0!A,2 !2!B,2 | %31
 !4!C!2!B,!1!^A,!2!F, !2!B,!0!=A,!4!^G,!0!E, | !0!A,!4!^G,!2!F,!0!A, !3!=G,!2!F,!1!^E,!1!C, | %33
 !2!F,3 !0!A, !2!B,3 !2!B, | !4!C2 !1!C,2 !2!F,2 z2 | !0!D2 !4!C2 !2!B,2 !2!F,2 | %36
 !3!G,2 !0!A,2 !2!D,!0!E,!2!F,!2!D, | !3!G,4 !2!F,4 | !0!E,4 !2!D,4 | %39
 !0!A,!2!B,!4!C!0!D !0!A,!2!B,!4!C!0!D | !0!A,!2!B,!4!C!0!D !0!A,!2!B,!4!C!0!D | %41
 !0!A,!0!A,!2!F,!2!D, !3!G,2 !0!E,2 | !2!F,2 !1!C,2 !2!D,2 !0!E,2 | %43
 !2!F,3 !3!G, !0!A,!2!A,,!0!A,!3!G, | !2!F,2 !3!G,4 !2!F,!3!G, | !0!A,2 !2!A,,2 !2!D,2 z2 :| %46

